src/Icon/svgs/message-outline.svg

<svg height="24" viewBox="0 0 24 24" width="24" xmlns="http://www.w3.org/2000/svg"><path d="m4 4h16c1.1045695 0 2 .8954305 2 2v12c0 1.1045695-.8954305 2-2 2h-16c-1.1045695 0-2-.8954305-2-2v-12c0-1.1045695.8954305-2 2-2zm0 2v12h16v-12zm3.51449574 2.14250653 4.48550386 2.69130227 4.4855039-2.69130227c.4735803-.28414816 1.0878406-.13058308 1.3719887.34299719.2841482.47358026.1305831 1.08784052-.3429972 1.37198867l-4.9999996 2.99999971c-.3166824.1900094-.7123091.1900094-1.0289915 0l-4.99999964-2.99999971c-.47358027-.28414815-.62714535-.89840841-.34299719-1.37198867.28414815-.47358027.89840841-.62714535 1.37198867-.34299719z" fill="#3e4042" fill-rule="evenodd"/></svg>

<svg xmlns="http://www.w3.org/2000/svg" width="24" height="24" viewBox="0 0 24 24">
  <path fill="#3E4042" fill-rule="evenodd" d="M4,4 L20,4 C21.1045695,4 22,4.8954305 22,6 L22,18 C22,19.1045695 21.1045695,20 20,20 L4,20 C2.8954305,20 2,19.1045695 2,18 L2,6 C2,4.8954305 2.8954305,4 4,4 Z M4,6 L4,18 L20,18 L20,6 L4,6 Z M7.51449574,8.14250653 L11.9999996,10.8338088 L16.4855035,8.14250653 C16.9590838,7.85835837 17.5733441,8.01192345 17.8574922,8.48550372 C18.1416404,8.95908398 17.9880753,9.57334424 17.514495,9.85749239 L12.5144954,12.8574921 C12.197813,13.0475015 11.8021863,13.0475015 11.4855039,12.8574921 L6.48550426,9.85749239 C6.01192399,9.57334424 5.85835891,8.95908398 6.14250707,8.48550372 C6.42665522,8.01192345 7.04091548,7.85835837 7.51449574,8.14250653 Z"/>
</svg>
